X: 1
T: L'homme arm\'e
O: Medieval French
M: 3/4
L: 1/4
K: Gdor
[|\
G2G | c2c | BA2 | G3  | ddG | zdd | dc2 | BA2 |
G3  | ddd | G3  | g2g | f2f | g2g | d3  | g2g |
f2f | g2g | d2g | a2g | fe2 | d3  | z3  | G2G |
c2c | BA2 | G3  | ddG | zdd | dc2 | BA2 | G3 |]
